ui/public/images/home_pics/illu-calcul-remuneration.svg

<svg width="196" height="223" viewBox="0 0 196 223" fill="none" xmlns="http://www.w3.org/2000/svg">
<g clip-path="url(#clip0_449_14338)">
<rect width="196" height="223" fill="#F6F6F6"/>
<path d="M-72.6948 99.5031C-68.5704 112.976 -52.8977 139.714 -23.2024 138.885C13.9167 137.848 24.2276 78.7759 92.2795 77.7395C160.331 76.7032 244.881 156.503 271.689 117.121" stroke="#ECECFE" stroke-width="5" stroke-linecap="round" stroke-linejoin="round" stroke-dasharray="4 10"/>
<path d="M21.7129 85.0049C30.9006 85.0049 38.3789 92.4962 38.3789 101.774C38.3788 111.053 30.9005 118.543 21.7129 118.543C12.5254 118.543 5.04703 111.052 5.04688 101.774C5.04688 92.4962 12.5253 85.005 21.7129 85.0049Z" stroke="#D3DFFC" stroke-width="7"/>
<ellipse cx="187.434" cy="119.328" rx="23.0471" ry="23.1649" fill="#FDE2B5"/>
<ellipse cx="173.785" cy="56.7505" rx="16.1329" ry="16.2154" fill="#FDC6BA"/>
<path d="M175.784 69.8087C175.784 63.1541 170.417 57.758 163.798 57.7544C163.794 57.7544 163.792 57.7544 163.791 57.7544H112.77C106.145 57.7544 100.776 63.1523 100.776 69.8123V153.188C100.776 159.848 106.145 165.246 112.77 165.246H163.791C170.415 165.246 175.784 159.848 175.784 153.188V69.8087Z" fill="#6A6AF4"/>
<path d="M154.712 163.522C154.468 163.522 154.248 163.352 154.192 163.103C154.126 162.813 154.308 162.526 154.595 162.46C161.262 160.942 161.821 154.472 161.821 147.973V86.9993C161.821 86.7021 162.06 86.4622 162.355 86.4622C162.651 86.4622 162.89 86.7021 162.89 86.9993V147.973C162.89 151.308 162.742 154.783 161.666 157.603C160.445 160.808 158.208 162.739 154.83 163.508C154.791 163.516 154.75 163.522 154.711 163.522H154.712Z" fill="#000091"/>
<path d="M151.327 68.5608H112.612C109.945 68.5608 107.784 70.7338 107.784 73.4144V82.0617C107.784 84.7423 109.945 86.9153 112.612 86.9153H151.327C153.993 86.9153 156.155 84.7423 156.155 82.0617V73.4144C156.155 70.7338 153.993 68.5608 151.327 68.5608Z" fill="white"/>
<path d="M116.235 92.9272H109.055C108.367 92.9272 107.809 93.4883 107.809 94.1805V101.075C107.809 101.767 108.367 102.328 109.055 102.328H116.235C116.924 102.328 117.482 101.767 117.482 101.075V94.1805C117.482 93.4883 116.924 92.9272 116.235 92.9272Z" fill="#000091"/>
<path d="M142.12 92.9272H134.94C134.252 92.9272 133.694 93.4883 133.694 94.1805V101.075C133.694 101.767 134.252 102.328 134.94 102.328H142.12C142.809 102.328 143.367 101.767 143.367 101.075V94.1805C143.367 93.4883 142.809 92.9272 142.12 92.9272Z" fill="#000091"/>
<path d="M129.178 92.9272H121.998C121.309 92.9272 120.751 93.4883 120.751 94.1805V101.075C120.751 101.767 121.309 102.328 121.998 102.328H129.178C129.866 102.328 130.424 101.767 130.424 101.075V94.1805C130.424 93.4883 129.866 92.9272 129.178 92.9272Z" fill="#000091"/>
<path d="M116.235 104.94H109.055C108.367 104.94 107.809 105.502 107.809 106.194V113.088C107.809 113.78 108.367 114.341 109.055 114.341H116.235C116.924 114.341 117.482 113.78 117.482 113.088V106.194C117.482 105.502 116.924 104.94 116.235 104.94Z" fill="#000091"/>
<path d="M142.12 104.94H134.94C134.252 104.94 133.694 105.502 133.694 106.194V113.088C133.694 113.78 134.252 114.341 134.94 114.341H142.12C142.809 114.341 143.367 113.78 143.367 113.088V106.194C143.367 105.502 142.809 104.94 142.12 104.94Z" fill="#000091"/>
<path d="M129.178 104.94H121.998C121.309 104.94 120.751 105.502 120.751 106.194V113.088C120.751 113.78 121.309 114.341 121.998 114.341H129.178C129.866 114.341 130.424 113.78 130.424 113.088V106.194C130.424 105.502 129.866 104.94 129.178 104.94Z" fill="#000091"/>
<path d="M116.235 117.475H109.055C108.367 117.475 107.809 118.036 107.809 118.728V125.622C107.809 126.315 108.367 126.876 109.055 126.876H116.235C116.924 126.876 117.482 126.315 117.482 125.622V118.728C117.482 118.036 116.924 117.475 116.235 117.475Z" fill="#000091"/>
<path d="M142.12 117.475H134.94C134.252 117.475 133.694 118.036 133.694 118.728V125.622C133.694 126.315 134.252 126.876 134.94 126.876H142.12C142.809 126.876 143.367 126.315 143.367 125.622V118.728C143.367 118.036 142.809 117.475 142.12 117.475Z" fill="#000091"/>
<path d="M129.178 117.475H121.998C121.309 117.475 120.751 118.036 120.751 118.728V125.622C120.751 126.315 121.309 126.876 121.998 126.876H129.178C129.866 126.876 130.424 126.315 130.424 125.622V118.728C130.424 118.036 129.866 117.475 129.178 117.475Z" fill="#000091"/>
<path d="M116.235 129.905H109.055C108.367 129.905 107.809 130.466 107.809 131.158V138.053C107.809 138.745 108.367 139.306 109.055 139.306H116.235C116.924 139.306 117.482 138.745 117.482 138.053V131.158C117.482 130.466 116.924 129.905 116.235 129.905Z" fill="#000091"/>
<path d="M142.12 129.905H134.94C134.252 129.905 133.694 130.466 133.694 131.158V138.053C133.694 138.745 134.252 139.306 134.94 139.306H142.12C142.809 139.306 143.367 138.745 143.367 138.053V131.158C143.367 130.466 142.809 129.905 142.12 129.905Z" fill="#000091"/>
<path d="M155.462 114.879H148.28C147.299 114.879 146.5 114.075 146.5 113.088V106.194C146.5 105.207 147.299 104.403 148.28 104.403H155.462C156.443 104.403 157.243 105.207 157.243 106.194V113.088C157.243 114.075 156.443 114.879 155.462 114.879ZM148.282 105.478C147.888 105.478 147.57 105.798 147.57 106.194V113.088C147.57 113.484 147.888 113.804 148.282 113.804H155.464C155.857 113.804 156.176 113.484 156.176 113.088V106.194C156.176 105.798 155.857 105.478 155.464 105.478H148.282Z" fill="#000091"/>
<path d="M155.462 102.726H148.28C147.299 102.726 146.5 101.922 146.5 100.935V94.0408C146.5 93.0543 147.299 92.2505 148.28 92.2505H155.462C156.443 92.2505 157.243 93.0543 157.243 94.0408V100.935C157.243 101.922 156.443 102.726 155.462 102.726ZM148.282 93.3247C147.888 93.3247 147.57 93.6452 147.57 94.0408V100.935C147.57 101.331 147.888 101.652 148.282 101.652H155.464C155.857 101.652 156.176 101.331 156.176 100.935V94.0408C156.176 93.6452 155.857 93.3247 155.464 93.3247H148.282Z" fill="#000091"/>
<path d="M155.462 127.413H148.28C147.299 127.413 146.5 126.609 146.5 125.622V118.728C146.5 117.741 147.299 116.938 148.28 116.938H155.462C156.443 116.938 157.243 117.741 157.243 118.728V125.622C157.243 126.609 156.443 127.413 155.462 127.413ZM148.282 118.012C147.888 118.012 147.57 118.332 147.57 118.728V125.622C147.57 126.018 147.888 126.339 148.282 126.339H155.464C155.857 126.339 156.176 126.018 156.176 125.622V118.728C156.176 118.332 155.857 118.012 155.464 118.012H148.282Z" fill="#000091"/>
<path d="M155.462 139.843H148.28C147.299 139.843 146.5 139.039 146.5 138.053V131.158C146.5 130.172 147.299 129.368 148.28 129.368H155.462C156.443 129.368 157.243 130.172 157.243 131.158V138.053C157.243 139.039 156.443 139.843 155.462 139.843ZM148.282 130.442C147.888 130.442 147.57 130.762 147.57 131.158V138.053C147.57 138.448 147.888 138.769 148.282 138.769H155.464C155.857 138.769 156.176 138.448 156.176 138.053V131.158C156.176 130.762 155.857 130.442 155.464 130.442H148.282Z" fill="#000091"/>
<path d="M129.178 129.905H121.998C121.309 129.905 120.751 130.466 120.751 131.158V138.053C120.751 138.745 121.309 139.306 121.998 139.306H129.178C129.866 139.306 130.424 138.745 130.424 138.053V131.158C130.424 130.466 129.866 129.905 129.178 129.905Z" fill="#000091"/>
<path d="M142.122 152.474H134.94C133.959 152.474 133.16 151.67 133.16 150.683V143.789C133.16 142.802 133.959 141.999 134.94 141.999H142.122C143.103 141.999 143.903 142.802 143.903 143.789V150.683C143.903 151.67 143.103 152.474 142.122 152.474ZM134.94 143.073C134.547 143.073 134.228 143.393 134.228 143.789V150.683C134.228 151.079 134.547 151.4 134.94 151.4H142.122C142.516 151.4 142.835 151.079 142.835 150.683V143.789C142.835 143.393 142.516 143.073 142.122 143.073H134.94Z" fill="#000091"/>
<path d="M148.335 152.474H148.013C147.18 152.474 146.501 151.792 146.501 150.954V143.517C146.501 142.679 147.18 141.997 148.013 141.997H155.733C156.566 141.997 157.245 142.679 157.245 143.517C157.245 148.455 153.249 152.472 148.337 152.472L148.335 152.474ZM148.013 143.073C147.769 143.073 147.57 143.273 147.57 143.519V150.956C147.57 151.201 147.769 151.401 148.013 151.401H148.335C152.657 151.401 156.174 147.866 156.174 143.52C156.174 143.275 155.975 143.075 155.731 143.075H148.011L148.013 143.073Z" fill="#000091"/>
<path d="M129.18 152.474H122C121.018 152.474 120.219 151.67 120.219 150.683V143.789C120.219 142.802 121.018 141.999 122 141.999H129.18C130.161 141.999 130.961 142.802 130.961 143.789V150.683C130.961 151.67 130.161 152.474 129.18 152.474ZM121.998 143.073C121.604 143.073 121.286 143.393 121.286 143.789V150.683C121.286 151.079 121.604 151.4 121.998 151.4H129.178C129.572 151.4 129.89 151.079 129.89 150.683V143.789C129.89 143.393 129.572 143.073 129.178 143.073H121.998Z" fill="#000091"/>
<path d="M116.627 152.474H116.305C111.394 152.474 107.397 148.456 107.397 143.519C107.397 142.681 108.076 141.999 108.909 141.999H116.629C117.462 141.999 118.141 142.681 118.141 143.519V150.956C118.141 151.793 117.462 152.476 116.629 152.476L116.627 152.474ZM108.908 143.073C108.664 143.073 108.464 143.273 108.464 143.519C108.464 147.865 111.981 151.4 116.303 151.4H116.625C116.869 151.4 117.069 151.199 117.069 150.954V143.517C117.069 143.271 116.869 143.071 116.625 143.071H108.906L108.908 143.073Z" fill="#000091"/>
<path d="M162.355 74.161C162.06 74.161 161.821 73.9211 161.821 73.6239C161.821 67.1249 161.264 60.6547 154.595 59.1365C154.306 59.0702 154.126 58.7838 154.192 58.4937C154.258 58.2037 154.545 58.0229 154.832 58.0891C158.21 58.859 160.446 60.7889 161.668 63.9936C162.742 66.8134 162.891 70.2885 162.891 73.6239C162.891 73.9211 162.653 74.161 162.357 74.161H162.355Z" fill="#000091"/>
<path d="M123.205 78.166H124.445V77.2776H123.205V75.6252H124.615C125.064 73.1626 126.414 71.9612 128.584 71.9612C130.027 71.9612 131.128 72.5688 131.856 73.5354L130.274 74.7368C129.917 74.1913 129.39 73.8024 128.614 73.8024C127.685 73.8024 127.032 74.2397 126.737 75.6252H130.473V77.2776H126.565V78.166H130.473V79.8185H126.737C127.016 81.2362 127.666 81.6735 128.614 81.6735C129.374 81.6735 129.901 81.2684 130.274 80.7391L131.856 81.9244C131.128 82.891 130.027 83.5147 128.584 83.5147C126.414 83.5147 125.064 82.3133 124.615 79.8208H123.205V78.1683V78.166Z" fill="#000091"/>
<path d="M132.508 78.166H133.749V77.2776H132.508V75.6252H133.918C134.367 73.1626 135.718 71.9612 137.888 71.9612C139.33 71.9612 140.431 72.5688 141.159 73.5354L139.577 74.7368C139.22 74.1913 138.694 73.8024 137.917 73.8024C136.988 73.8024 136.336 74.2397 136.04 75.6252H139.776V77.2776H135.869V78.166H139.776V79.8185H136.04C136.32 81.2362 136.97 81.6735 137.917 81.6735C138.677 81.6735 139.204 81.2684 139.577 80.7391L141.159 81.9244C140.431 82.891 139.33 83.5147 137.888 83.5147C135.718 83.5147 134.367 82.3133 133.918 79.8208H132.508V78.1683V78.166Z" fill="#000091"/>
<path d="M141.814 78.166H143.054V77.2776H141.814V75.6252H143.224C143.672 73.1626 145.023 71.9612 147.193 71.9612C148.635 71.9612 149.737 72.5688 150.464 73.5354L148.883 74.7368C148.526 74.1913 147.999 73.8024 147.223 73.8024C146.294 73.8024 145.641 74.2397 145.346 75.6252H149.082V77.2776H145.174V78.166H149.082V79.8185H145.346C145.625 81.2362 146.275 81.6735 147.223 81.6735C147.983 81.6735 148.509 81.2684 148.883 80.7391L150.464 81.9244C149.737 82.891 148.635 83.5147 147.193 83.5147C145.023 83.5147 143.672 82.3133 143.224 79.8208H141.814V78.1683V78.166Z" fill="#000091"/>
<path d="M81.473 131.249C83.7061 139.548 94.1806 140.004 99.4588 132.993C104.737 125.982 113.185 131.833 109.426 137.578C105.668 143.323 97.4608 162.374 72.0029 152.064L41.6267 161.098C40.9233 161.307 40.2109 161.572 39.4897 161.837C35.9923 162.62 28.871 162.398 23.2242 150.485C23.0462 150.111 22.5867 149.067 22.5191 148.915C17.7519 137.673 21.5022 131.837 23.7976 129.547C30.7551 126.213 41.9169 121.564 41.9169 121.564L51.8732 102.366C51.8732 102.366 55.1498 96.4059 59.4664 99.0592C63.7829 101.712 58.8502 109.169 58.8502 109.169C58.966 109.509 62.15 104.609 66.2101 97.8937C68.9258 93.4017 74.4782 93.7132 76.1521 98.9679C76.884 97.8507 78.9622 94.9271 78.9622 94.9271C78.9622 94.9271 81.9058 89.8461 87.1964 92.8825C91.9564 95.6146 86.3506 103.787 83.3339 108.625C85.3213 106.955 87.866 105.963 90.5549 105.696C90.5549 105.696 122.596 94.0999 125.522 95.4105C128.448 96.721 125.837 105.042 120.782 107.93C115.726 110.818 97.9095 116.936 97.9095 116.936C97.9095 116.936 78.5152 120.26 81.473 131.248V131.249Z" fill="#FCC0B4"/>
<path d="M64.5024 116.972C64.4009 116.972 64.2976 116.943 64.205 116.88C63.9593 116.715 63.8951 116.381 64.059 116.135L75.2938 99.2901C75.4577 99.0431 75.7907 98.9786 76.0346 99.1433C76.2804 99.308 76.3445 99.6428 76.1806 99.8881L64.9458 116.733C64.8425 116.887 64.6733 116.972 64.5024 116.972Z" fill="#000091"/>
<path d="M71.6576 114.737C71.4688 114.737 71.2854 114.635 71.1875 114.458C71.0468 114.196 71.1412 113.871 71.4011 113.729L83.6243 107.026C83.8825 106.885 84.2084 106.98 84.3491 107.241C84.4898 107.501 84.3954 107.828 84.1354 107.97L71.9122 114.673C71.8303 114.717 71.7431 114.739 71.6576 114.739V114.737Z" fill="#000091"/>
<path d="M51.9409 119.951C51.8429 119.951 51.745 119.924 51.6559 119.868C51.4066 119.709 51.3318 119.378 51.4903 119.127L61.2649 103.6C61.4234 103.349 61.7529 103.274 62.0022 103.433C62.2515 103.592 62.3263 103.924 62.1678 104.174L52.3932 119.702C52.2917 119.863 52.1189 119.952 51.9409 119.952V119.951Z" fill="#000091"/>
</g>
<defs>
<clipPath id="clip0_449_14338">
<rect width="196" height="223" fill="white"/>
</clipPath>
</defs>
</svg>

<svg xmlns="http://www.w3.org/2000/svg" width="196" height="223" fill="none" viewBox="0 0 196 223"><g clip-path="url(#a)"><path fill="#f6f6f6" d="M0 0h196v223H0z"/><path stroke="#ececfe" stroke-dasharray="4 10" stroke-linecap="round" stroke-linejoin="round" stroke-width="5" d="M-72.695 99.503c4.125 13.473 19.797 40.211 49.493 39.382 37.119-1.037 47.43-60.11 115.482-61.145 68.051-1.037 152.601 78.763 179.409 39.381"/><path stroke="#d3dffc" stroke-width="7" d="M21.713 85.005c9.188 0 16.666 7.491 16.666 16.769 0 9.279-7.478 16.769-16.666 16.769s-16.666-7.491-16.666-16.769 7.478-16.769 16.666-16.77Z"/><ellipse cx="187.434" cy="119.328" fill="#fde2b5" rx="23.047" ry="23.165"/><ellipse cx="173.785" cy="56.751" fill="#fdc6ba" rx="16.133" ry="16.215"/><path fill="#6a6af4" d="M175.784 69.809c0-6.655-5.367-12.051-11.986-12.055H112.77c-6.625 0-11.994 5.398-11.994 12.058v83.376c0 6.66 5.369 12.058 11.994 12.058h51.021c6.624 0 11.993-5.398 11.993-12.058z"/><path fill="#000091" d="M154.712 163.522a.538.538 0 0 1-.117-1.062c6.667-1.518 7.226-7.988 7.226-14.487V86.999a.535.535 0 1 1 1.069 0v60.974c0 3.335-.148 6.81-1.224 9.63-1.221 3.205-3.458 5.136-6.836 5.905a.6.6 0 0 1-.119.014z"/><path fill="#fff" d="M151.327 68.56h-38.715c-2.667 0-4.828 2.174-4.828 4.854v8.648c0 2.68 2.161 4.853 4.828 4.853h38.715c2.666 0 4.828-2.173 4.828-4.853v-8.648c0-2.68-2.162-4.853-4.828-4.853"/><path fill="#000091" d="M116.235 92.927h-7.18a1.25 1.25 0 0 0-1.246 1.253v6.895a1.25 1.25 0 0 0 1.246 1.253h7.18a1.25 1.25 0 0 0 1.247-1.253V94.18a1.25 1.25 0 0 0-1.247-1.253m25.885 0h-7.18a1.25 1.25 0 0 0-1.246 1.253v6.895a1.25 1.25 0 0 0 1.246 1.253h7.18a1.25 1.25 0 0 0 1.247-1.253V94.18a1.25 1.25 0 0 0-1.247-1.253m-12.942 0h-7.18a1.25 1.25 0 0 0-1.247 1.253v6.895a1.25 1.25 0 0 0 1.247 1.253h7.18a1.25 1.25 0 0 0 1.246-1.253V94.18a1.25 1.25 0 0 0-1.246-1.253m-12.943 12.013h-7.18a1.25 1.25 0 0 0-1.246 1.254v6.894a1.25 1.25 0 0 0 1.246 1.253h7.18a1.25 1.25 0 0 0 1.247-1.253v-6.894a1.25 1.25 0 0 0-1.247-1.254m25.885 0h-7.18a1.25 1.25 0 0 0-1.246 1.254v6.894a1.25 1.25 0 0 0 1.246 1.253h7.18a1.25 1.25 0 0 0 1.247-1.253v-6.894a1.25 1.25 0 0 0-1.247-1.254m-12.942 0h-7.18a1.25 1.25 0 0 0-1.247 1.254v6.894a1.25 1.25 0 0 0 1.247 1.253h7.18a1.25 1.25 0 0 0 1.246-1.253v-6.894a1.25 1.25 0 0 0-1.246-1.254m-12.943 12.535h-7.18a1.25 1.25 0 0 0-1.246 1.253v6.894a1.25 1.25 0 0 0 1.246 1.254h7.18a1.25 1.25 0 0 0 1.247-1.254v-6.894a1.25 1.25 0 0 0-1.247-1.253m25.885 0h-7.18a1.25 1.25 0 0 0-1.246 1.253v6.894a1.25 1.25 0 0 0 1.246 1.254h7.18a1.25 1.25 0 0 0 1.247-1.254v-6.894a1.25 1.25 0 0 0-1.247-1.253m-12.942 0h-7.18a1.25 1.25 0 0 0-1.247 1.253v6.894a1.25 1.25 0 0 0 1.247 1.254h7.18a1.25 1.25 0 0 0 1.246-1.254v-6.894a1.25 1.25 0 0 0-1.246-1.253m-12.943 12.43h-7.18a1.25 1.25 0 0 0-1.246 1.253v6.895a1.25 1.25 0 0 0 1.246 1.253h7.18a1.25 1.25 0 0 0 1.247-1.253v-6.895a1.25 1.25 0 0 0-1.247-1.253m25.885 0h-7.18a1.25 1.25 0 0 0-1.246 1.253v6.895a1.25 1.25 0 0 0 1.246 1.253h7.18a1.25 1.25 0 0 0 1.247-1.253v-6.895a1.25 1.25 0 0 0-1.247-1.253m13.342-15.026h-7.182c-.981 0-1.78-.804-1.78-1.791v-6.894c0-.987.799-1.791 1.78-1.791h7.182a1.79 1.79 0 0 1 1.781 1.791v6.894c0 .987-.8 1.791-1.781 1.791m-7.18-9.401a.713.713 0 0 0-.712.716v6.894c0 .396.318.716.712.716h7.182c.393 0 .712-.32.712-.716v-6.894a.714.714 0 0 0-.712-.716zm7.18-2.752h-7.182c-.981 0-1.78-.804-1.78-1.791v-6.894c0-.987.799-1.79 1.78-1.79h7.182c.981 0 1.781.803 1.781 1.79v6.894c0 .987-.8 1.791-1.781 1.791m-7.18-9.401a.713.713 0 0 0-.712.716v6.894c0 .396.318.717.712.717h7.182a.715.715 0 0 0 .712-.717v-6.894a.714.714 0 0 0-.712-.716zm7.18 34.088h-7.182c-.981 0-1.78-.804-1.78-1.791v-6.894c0-.987.799-1.79 1.78-1.79h7.182c.981 0 1.781.803 1.781 1.79v6.894c0 .987-.8 1.791-1.781 1.791m-7.18-9.401a.713.713 0 0 0-.712.716v6.894c0 .396.318.717.712.717h7.182a.715.715 0 0 0 .712-.717v-6.894a.714.714 0 0 0-.712-.716zm7.18 21.831h-7.182c-.981 0-1.78-.804-1.78-1.79v-6.895c0-.986.799-1.79 1.78-1.79h7.182c.981 0 1.781.804 1.781 1.79v6.895c0 .986-.8 1.79-1.781 1.79m-7.18-9.401a.713.713 0 0 0-.712.716v6.895c0 .395.318.716.712.716h7.182a.714.714 0 0 0 .712-.716v-6.895a.714.714 0 0 0-.712-.716zm-19.104-.537h-7.18a1.25 1.25 0 0 0-1.247 1.253v6.895a1.25 1.25 0 0 0 1.247 1.253h7.18a1.25 1.25 0 0 0 1.246-1.253v-6.895a1.25 1.25 0 0 0-1.246-1.253m12.944 22.569h-7.182c-.981 0-1.78-.804-1.78-1.791v-6.894c0-.987.799-1.79 1.78-1.79h7.182c.981 0 1.781.803 1.781 1.79v6.894c0 .987-.8 1.791-1.781 1.791m-7.182-9.401a.714.714 0 0 0-.712.716v6.894c0 .396.319.717.712.717h7.182a.715.715 0 0 0 .713-.717v-6.894a.714.714 0 0 0-.713-.716zm13.395 9.401h-.322a1.52 1.52 0 0 1-1.512-1.52v-7.437c0-.838.679-1.52 1.512-1.52h7.72c.833 0 1.512.682 1.512 1.52 0 4.938-3.996 8.955-8.908 8.955zm-.322-9.401c-.244 0-.443.2-.443.446v7.437c0 .245.199.445.443.445h.322c4.322 0 7.839-3.535 7.839-7.881a.445.445 0 0 0-.443-.445h-7.72zm-18.833 9.401H122a1.79 1.79 0 0 1-1.781-1.791v-6.894c0-.987.799-1.79 1.781-1.79h7.18c.981 0 1.781.803 1.781 1.79v6.894c0 .987-.8 1.791-1.781 1.791m-7.182-9.401a.713.713 0 0 0-.712.716v6.894c0 .396.318.717.712.717h7.18a.714.714 0 0 0 .712-.717v-6.894a.713.713 0 0 0-.712-.716zm-5.371 9.401h-.322c-4.911 0-8.908-4.018-8.908-8.955 0-.838.679-1.52 1.512-1.52h7.72c.833 0 1.512.682 1.512 1.52v7.437c0 .837-.679 1.52-1.512 1.52zm-7.719-9.401c-.244 0-.444.2-.444.446 0 4.346 3.517 7.881 7.839 7.881h.322a.447.447 0 0 0 .444-.446v-7.437c0-.246-.2-.446-.444-.446h-7.719zm53.447-68.912a.535.535 0 0 1-.534-.537c0-6.5-.557-12.97-7.226-14.487a.536.536 0 0 1-.403-.643.534.534 0 0 1 .64-.405c3.378.77 5.614 2.7 6.836 5.905 1.074 2.82 1.223 6.294 1.223 9.63a.535.535 0 0 1-.534.537zm-39.15 4.005h1.24v-.888h-1.24v-1.653h1.41c.449-2.462 1.799-3.664 3.969-3.664 1.443 0 2.544.608 3.272 1.574l-1.582 1.202c-.357-.546-.884-.935-1.66-.935-.929 0-1.582.438-1.877 1.823h3.736v1.653h-3.908v.888h3.908v1.653h-3.736c.279 1.417.929 1.855 1.877 1.855.76 0 1.287-.406 1.66-.935l1.582 1.185c-.728.967-1.829 1.59-3.272 1.59-2.17 0-3.52-1.2-3.969-3.693h-1.41zm9.303 0h1.241v-.888h-1.241v-1.653h1.41c.449-2.462 1.8-3.664 3.97-3.664 1.442 0 2.543.608 3.271 1.574l-1.582 1.202c-.357-.546-.883-.935-1.66-.935-.929 0-1.581.438-1.877 1.823h3.736v1.653h-3.907v.888h3.907v1.653h-3.736c.28 1.417.93 1.855 1.877 1.855.76 0 1.287-.406 1.66-.935l1.582 1.185c-.728.967-1.829 1.59-3.271 1.59-2.17 0-3.521-1.2-3.97-3.693h-1.41zm9.306 0h1.24v-.888h-1.24v-1.653h1.41c.448-2.462 1.799-3.664 3.969-3.664 1.442 0 2.544.608 3.271 1.574l-1.581 1.202c-.357-.546-.884-.935-1.66-.935-.929 0-1.582.438-1.877 1.823h3.736v1.653h-3.908v.888h3.908v1.653h-3.736c.279 1.417.929 1.855 1.877 1.855.76 0 1.286-.406 1.66-.935l1.581 1.185c-.727.967-1.829 1.59-3.271 1.59-2.17 0-3.521-1.2-3.969-3.693h-1.41z"/><path fill="#fcc0b4" d="M81.473 131.249c2.233 8.299 12.708 8.755 17.986 1.744s13.726-1.16 9.967 4.585c-3.758 5.745-11.965 24.796-37.423 14.486l-30.376 9.034c-.704.209-1.416.474-2.137.739-3.498.783-10.619.561-16.266-11.352-.178-.374-.637-1.418-.705-1.57-4.767-11.242-1.017-17.078 1.279-19.368 6.957-3.334 18.119-7.983 18.119-7.983l9.956-19.198s3.277-5.96 7.593-3.307c4.317 2.653-.616 10.11-.616 10.11.116.34 3.3-4.56 7.36-11.275 2.716-4.492 8.268-4.18 9.942 1.074.732-1.117 2.81-4.04 2.81-4.04s2.944-5.082 8.234-2.046c4.76 2.733-.845 10.905-3.862 15.743 1.987-1.67 4.532-2.662 7.22-2.929 0 0 32.042-11.596 34.968-10.285s.315 9.631-4.74 12.519-22.873 9.006-22.873 9.006-19.394 3.324-16.436 14.312z"/><path fill="#000091" d="M64.502 116.972a.538.538 0 0 1-.443-.837L75.294 99.29a.53.53 0 0 1 .74-.147c.246.165.31.5.147.745l-11.235 16.845a.54.54 0 0 1-.444.239m7.156-2.235a.538.538 0 0 1-.257-1.008l12.223-6.703a.533.533 0 0 1 .725.215.54.54 0 0 1-.214.729l-12.223 6.703a.54.54 0 0 1-.254.066zm-19.718 5.214a.538.538 0 0 1-.45-.824l9.775-15.527a.53.53 0 0 1 .737-.167c.25.159.324.491.166.741l-9.775 15.528a.53.53 0 0 1-.452.25z"/></g><defs><clipPath id="a"><path fill="#fff" d="M0 0h196v223H0z"/></clipPath></defs></svg>
